svg/chevron-double-left.svg

<svg width="24" height="24" viewBox="0 0 24 24" fill="none" xmlns="http://www.w3.org/2000/svg">
<path d="M17.7071 5.29289C18.0976 5.68342 18.0976 6.31658 17.7071 6.70711L12.4142 12L17.7071 17.2929C18.0976 17.6834 18.0976 18.3166 17.7071 18.7071C17.3166 19.0976 16.6834 19.0976 16.2929 18.7071L10.2929 12.7071C9.90237 12.3166 9.90237 11.6834 10.2929 11.2929L16.2929 5.29289C16.6834 4.90237 17.3166 4.90237 17.7071 5.29289ZM11.7071 5.29289C12.0976 5.68342 12.0976 6.31658 11.7071 6.70711L6.41421 12L11.7071 17.2929C12.0976 17.6834 12.0976 18.3166 11.7071 18.7071C11.3166 19.0976 10.6834 19.0976 10.2929 18.7071L4.29289 12.7071C4.10536 12.5196 4 12.2652 4 12C4 11.7348 4.10536 11.4804 4.29289 11.2929L10.2929 5.29289C10.6834 4.90237 11.3166 4.90237 11.7071 5.29289Z" fill="#0D0D0D"/>
</svg>

<svg width="24" height="24" fill="none" xmlns="http://www.w3.org/2000/svg"><path d="M17.707 5.293a1 1 0 010 1.414L12.414 12l5.293 5.293a1 1 0 01-1.414 1.414l-6-6a1 1 0 010-1.414l6-6a1 1 0 011.414 0zm-6 0a1 1 0 010 1.414L6.414 12l5.293 5.293a1 1 0 01-1.414 1.414l-6-6a1 1 0 010-1.414l6-6a1 1 0 011.414 0z" fill="#0D0D0D"/></svg>
